!!!OTL: Edongnan gemingweiyun hui ge
!!!ARE: Asia, China,ÿHubei Yangxing
!! I, 409
!!!SCT: C2158
!!!YEM: Copyright 1995, estate of Helmut Schaffrath.
**kern
*ICvox
*Ivox
*M2/4
*k[f#]
*G:
{8ee
8gg
16ee
16dd
8b
=1
8ee
16gg
16ee
4dd
=2
8b
8gg
16ee
16dd
8b
=3
2dd}
=4
{8.b
16dd
8ee
8gg
=5
8dd
8b
4a
=6
8g
8e
8dd
8b
=7
2a}
=8
{8dd
8b
8a
8b
=9
8g
4g
8a
=10
8b
8a
8g
8a
=11
8dd
16dd
16b
4a}
=12
{8.b
16dd
8ee
8gg
=13
8dd
8b
4a
=14
8b
16a
16b
8e
8d
=15
2g}
=16
{8b
16b
16a
8g
8a
=17
4g
4g
=18
8b
16b
16a
8g
8a
=19
4g
4g}
=20
{8.b
16dd
8ee
8gg
=21
8dd
8b
4a
=22
8b
16a
16b
8e
8d
=23
2g}
=24
{8.b
16a
8g
8a
=25
16b
16dd
16a
16b
4dd
=26
8b
8dd
8ee
8ee
=27
2dd}
==
!!!AGN: Xiaodiao
!!!ONB: ESAC (Essen Associative Code) Database: SENGANSU
!!!AMT: simple duple
!!!AIN: vox
!!!EED: Helmut Schaffrath
!!!EEV: 1.0
*-
